X:748
T:BRAWLAD- Braw, braw lads of Galla Water
O:england
S:SMM II, #125, 1788
Q:1/4=90
L:1/8
M:C
K:Amixolydian
F2(E3>D) D3F|A3B (AD|F3EE2F>A|B>A d/c {c/}B2.Az/A/|\
A3(B/c/)d3e|f>ed B d3F|F2D>FE2F>A|B>A d>c {c/}B2 .Az|]


